images/svg-symbols/clock-outline.svg

<?xml version="1.0" encoding="UTF-8"?><!DOCTYPE svg PUBLIC "-//W3C//DTD SVG 1.1//EN" "http://www.w3.org/Graphics/SVG/1.1/DTD/svg11.dtd"><svg xmlns="http://www.w3.org/2000/svg" xmlns:xlink="http://www.w3.org/1999/xlink" version="1.1" width="24" height="24" viewBox="0 0 24 24"><path d="M12,20A8,8 0 0,0 20,12A8,8 0 0,0 12,4A8,8 0 0,0 4,12A8,8 0 0,0 12,20M12,2A10,10 0 0,1 22,12A10,10 0 0,1 12,22C6.47,22 2,17.5 2,12A10,10 0 0,1 12,2M12.5,7V12.25L17,14.92L16.25,16.15L11,13V7H12.5Z" /></svg>

<svg xmlns="http://www.w3.org/2000/svg" width="24" height="24" viewBox="0 0 24 24"><path d="M12 20a8 8 0 0 0 8-8 8 8 0 0 0-8-8 8 8 0 0 0-8 8 8 8 0 0 0 8 8m0-18a10 10 0 0 1 10 10 10 10 0 0 1-10 10A10 10 0 0 1 2 12 10 10 0 0 1 12 2m.5 5v5.3l4.5 2.6-.8 1.2L11 13V7h1.5z"/></svg>
